;FLAVOR:Marlin
;TIME:2231
;Filament used: 3.46941m
;Layer height: 0.32
;MINX:95.95
;MINY:77.2
;MINZ:0.2
;MAXX:154.05
;MAXY:132.8
;MAXZ:29.96
;Generated with Cura_SteamEngine 4.13.1
M82 ;absolute extrusion mode
G21 ; set units to millimeters
G90 ; use absolute positioning
M82 ; absolute extrusion mode
M104 S210 ; set extruder temp
M140 S70 ; set bed temp
M190 S70 ; wait for bed temp
M109 S210 ; wait for extruder temp
G28 W ; home all without mesh bed level
G80 ; mesh bed leveling
G92 E0.0 ; reset extruder distance position
G1 Y-3.0 F1000.0 ; go outside print area
G1 X60.0 E9.0 F1000.0 ; intro line
G1 X100.0 E21.5 F1000.0 ; intro line
G92 E0.0 ; reset extruder distance position
G92 E0
G92 E0
G1 F2100 E-0.8
;LAYER_COUNT:94
;LAYER:0
M107
G0 F3600 X97.83 Y80.039 Z0.2
;TYPE:SKIRT
G1 F2100 E0
G1 F1800 X98.235 Y79.602 E0.01982
G1 X98.352 Y79.485 E0.02532
G1 X98.938 Y78.955 E0.0516
G1 X99.574 Y78.488 E0.07784
G1 X100.254 Y78.087 E0.1041
G1 X100.972 Y77.757 E0.13038
G1 X101.719 Y77.502 E0.15664
G1 X102.488 Y77.323 E0.1829
G1 X103.272 Y77.223 E0.20918
G1 X103.867 Y77.2 E0.22899
G1 X141.758 Y77.2 E1.48925
G1 X142.368 Y77.224 E1.50955
G1 X143.056 Y77.278 E1.53251
G1 X143.374 Y77.309 E1.54313
G1 X144.3 Y77.475 E1.57442
G1 X144.981 Y77.64 E1.59773
G1 X145.738 Y77.865 E1.62399
G1 X146.145 Y78.021 E1.63849
G1 X146.8 Y78.294 E1.66209
G1 X147.512 Y78.635 E1.68835
G1 X147.889 Y78.853 E1.70283
G1 X148.493 Y79.225 E1.72643
G1 X149.144 Y79.672 E1.75269
G1 X149.475 Y79.94 E1.76686
G1 X150.009 Y80.397 E1.79024
G1 X150.582 Y80.94 E1.81649
G1 X150.879 Y81.27 E1.83126
G1 X151.334 Y81.805 E1.85462
G1 X151.814 Y82.431 E1.88085
G1 X152.04 Y82.778 E1.89463
G1 X152.404 Y83.371 E1.91777
G1 X152.782 Y84.064 E1.94403
G1 X152.956 Y84.45 E1.95811
G1 X153.229 Y85.105 E1.98171
G1 X153.495 Y85.849 E2.00799
G1 X153.613 Y86.282 E2.02292
G1 X153.777 Y86.964 E2.04625
G1 X153.823 Y87.168 E2.0532
G1 X153.972 Y88.189 E2.08752
G1 X154.026 Y88.874 E2.11037
G1 X154.05 Y89.487 E2.13078
G1 X154.05 Y120.511 E3.16264
G1 X154.026 Y121.124 E3.18304
G1 X153.972 Y121.809 E3.2059
G1 X153.934 Y122.179 E3.21827
G1 X153.777 Y123.041 E3.24741
G1 X153.613 Y123.721 E3.27068
G1 X153.389 Y124.478 E3.29693
G1 X153.231 Y124.889 E3.31158
G1 X152.958 Y125.545 E3.33521
G1 X152.618 Y126.258 E3.36148
G1 X152.397 Y126.641 E3.37619
G1 X152.024 Y127.246 E3.39983
G1 X151.576 Y127.897 E3.42612
G1 X151.31 Y128.225 E3.44016
G1 X150.853 Y128.759 E3.46354
G1 X150.31 Y129.332 E3.48979
G1 X149.988 Y129.622 E3.50421
G1 X149.465 Y130.068 E3.52707
G1 X148.839 Y130.549 E3.55333
G1 X148.497 Y130.773 E3.56692
G1 X147.892 Y131.146 E3.59056
G1 X147.2 Y131.525 E3.6168
G1 X146.8 Y131.706 E3.63141
G1 X146.145 Y131.979 E3.65501
G1 X145.401 Y132.245 E3.68129
G1 X144.968 Y132.363 E3.69622
G1 X144.286 Y132.527 E3.71955
G1 X143.977 Y132.595 E3.73007
G1 X143.056 Y132.722 E3.76099
G1 X142.367 Y132.776 E3.78398
G1 X141.758 Y132.8 E3.80425
G1 X103.867 Y132.8 E5.06451
G1 X103.078 Y132.76 E5.09078
G1 X102.298 Y132.641 E5.11703
G1 X101.533 Y132.443 E5.14331
G1 X100.793 Y132.169 E5.16956
G1 X100.084 Y131.821 E5.19582
G1 X99.413 Y131.403 E5.22212
G1 X98.789 Y130.92 E5.24836
G1 X98.352 Y130.515 E5.26818
G1 X98.235 Y130.398 E5.27368
G1 X97.705 Y129.812 E5.29996
G1 X97.238 Y129.176 E5.32621
G1 X96.837 Y128.496 E5.35246
G1 X96.507 Y127.778 E5.37875
G1 X96.252 Y127.031 E5.405
G1 X96.073 Y126.262 E5.43126
G1 X95.973 Y125.478 E5.45755
G1 X95.95 Y124.883 E5.47735
G1 X95.95 Y85.117 E6.79997
G1 X95.99 Y84.328 E6.82625
G1 X96.109 Y83.548 E6.85249
G1 X96.307 Y82.783 E6.87878
G1 X96.581 Y82.043 E6.90502
G1 X96.929 Y81.334 E6.93129
G1 X97.347 Y80.663 E6.95758
G1 X97.83 Y80.039 E6.98383
G0 F3600 X98.225 Y80.194
G1 F1800 X98.634 Y79.767 E7.0035
G1 X99.206 Y79.253 E7.02907
G1 X99.828 Y78.8 E7.05467
G1 X100.493 Y78.414 E7.08024
G1 X101.195 Y78.099 E7.10583
G1 X101.926 Y77.859 E7.13142
G1 X102.677 Y77.696 E7.15698
G1 X103.442 Y77.612 E7.18258
G1 X103.867 Y77.6 E7.19672
G1 X141.758 Y77.6 E8.45698
G1 X142.337 Y77.623 E8.47625
G1 X143.025 Y77.677 E8.4992
G1 X143.328 Y77.707 E8.50933
G1 X144.206 Y77.864 E8.539
G1 X144.887 Y78.029 E8.5623
G1 X145.624 Y78.249 E8.58788
G1 X145.991 Y78.391 E8.60097
G1 X146.646 Y78.664 E8.62457
G1 X147.34 Y78.996 E8.65016
G1 X147.68 Y79.193 E8.66323
G1 X148.284 Y79.565 E8.68683
G1 X149.215 Y80.244 E8.72515
G1 X149.749 Y80.701 E8.74853
G1 X150.306 Y81.231 E8.7741
G1 X150.574 Y81.529 E8.78743
G1 X151.029 Y82.064 E8.81079
G1 X151.699 Y82.987 E8.84872
G1 X152.063 Y83.58 E8.87187
G1 X152.586 Y84.604 E8.91011
G1 X152.859 Y85.259 E8.93371
G1 X153.118 Y85.983 E8.95929
G1 X153.224 Y86.376 E8.97283
G1 X153.388 Y87.058 E8.99616
G1 X153.432 Y87.251 E9.00274
G1 X153.573 Y88.22 E9.03531
G1 X153.627 Y88.905 E9.05816
G1 X153.65 Y89.487 E9.07753
G1 X153.65 Y120.511 E10.1094
G1 X153.627 Y121.093 E10.12877
G1 X153.573 Y121.778 E10.15162
G1 X153.537 Y122.13 E10.16339
G1 X153.388 Y122.947 E10.19101
G1 X153.224 Y123.627 E10.21428
G1 X153.005 Y124.364 E10.23985
G1 X152.862 Y124.735 E10.25308
G1 X152.589 Y125.391 E10.27671
G1 X152.257 Y126.085 E10.3023
G1 X152.056 Y126.432 E10.31563
G1 X151.683 Y127.037 E10.33927
G1 X151.006 Y127.965 E10.37748
G1 X150.549 Y128.499 E10.40086
G1 X150.019 Y129.056 E10.42643
G1 X149.729 Y129.318 E10.43943
G1 X149.206 Y129.764 E10.46229
G1 X148.288 Y130.432 E10.50005
G1 X147.683 Y130.805 E10.52369
G1 X147.008 Y131.174 E10.54928
G1 X146.646 Y131.336 E10.56247
G1 X145.991 Y131.609 E10.58607
G1 X145.267 Y131.868 E10.61164
G1 X144.874 Y131.974 E10.62518
G1 X144.192 Y132.138 E10.64851
G1 X143.898 Y132.202 E10.65852
G1 X143.025 Y132.323 E10.68783
G1 X142.336 Y132.377 E10.71082
G1 X141.758 Y132.4 E10.73006
G1 X103.867 Y132.4 E11.99032
G1 X103.099 Y132.36 E12.0159
G1 X102.339 Y132.241 E12.04148
G1 X101.596 Y132.043 E12.06706
G1 X100.877 Y131.769 E12.09265
G1 X100.191 Y131.422 E12.11822
G1 X99.544 Y131.006 E12.1438
G1 X98.944 Y130.525 E12.16938
G1 X98.517 Y130.116 E12.18904
G1 X98.003 Y129.544 E12.21462
G1 X97.55 Y128.922 E12.24022
G1 X97.164 Y128.257 E12.26579
G1 X96.849 Y127.555 E12.29138
G1 X96.609 Y126.824 E12.31697
G1 X96.446 Y126.073 E12.34253
G1 X96.362 Y125.308 E12.36813
G1 X96.35 Y124.883 E12.38227
G1 X96.35 Y85.117 E13.70489
G1 X96.39 Y84.349 E13.73047
G1 X96.509 Y83.589 E13.75606
G1 X96.707 Y82.846 E13.78163
G1 X96.981 Y82.127 E13.80722
G1 X97.328 Y81.441 E13.83279
G1 X97.744 Y80.794 E13.85837
G1 X98.225 Y80.194 E13.88395
G0 F3600 X98.142 Y80.928
G1 F1800 X98.8 Y80.167 E13.91741
G1 X98.917 Y80.05 E13.92292
G1 X99.474 Y79.55 E13.94781
G1 X100.08 Y79.113 E13.97266
G1 X100.73 Y78.742 E13.99755
G1 X101.416 Y78.443 E14.02244
G1 X102.13 Y78.219 E14.04733
G1 X102.863 Y78.072 E14.0722
G1 X103.867 Y78 E14.10568
G1 X141.758 Y78 E15.36594
G1 X142.306 Y78.021 E15.38418
G1 X142.994 Y78.075 E15.40713
G1 X143.281 Y78.104 E15.41672
G1 X144.111 Y78.253 E15.44477
G1 X144.792 Y78.418 E15.46808
G1 X145.837 Y78.76 E15.50465
G1 X146.492 Y79.033 E15.52825
G1 X147.47 Y79.534 E15.5648
G1 X148.074 Y79.906 E15.58839
G1 X148.954 Y80.548 E15.62462
G1 X149.488 Y81.005 E15.648
G1 X150.269 Y81.788 E15.68478
G1 X150.724 Y82.323 E15.70814
G1 X151.358 Y83.196 E15.74402
G1 X151.722 Y83.789 E15.76717
G1 X152.217 Y84.758 E15.80336
G1 X152.49 Y85.413 E15.82696
G1 X152.835 Y86.469 E15.86391
G1 X152.999 Y87.151 E15.88724
G1 X153.041 Y87.335 E15.89352
G1 X153.174 Y88.252 E15.92434
G1 X153.228 Y88.937 E15.94719
G1 X153.25 Y89.487 E15.9655
G1 X153.25 Y120.511 E16.99736
G1 X153.228 Y121.061 E17.01567
G1 X153.174 Y121.746 E17.03852
G1 X153.14 Y122.08 E17.04969
G1 X152.999 Y122.853 E17.07582
G1 X152.835 Y123.533 E17.09909
G1 X152.493 Y124.582 E17.13578
G1 X152.22 Y125.238 E17.15942
G1 X151.716 Y126.222 E17.19619
G1 X151.343 Y126.827 E17.21983
G1 X150.702 Y127.704 E17.25596
G1 X150.245 Y128.238 E17.27933
G1 X149.469 Y129.013 E17.31581
G1 X148.946 Y129.459 E17.33867
G1 X148.078 Y130.092 E17.3744
G1 X147.473 Y130.465 E17.39804
G1 X146.492 Y130.967 E17.4347
G1 X145.837 Y131.24 E17.4583
G1 X144.781 Y131.585 E17.49525
G1 X144.099 Y131.749 E17.51858
G1 X143.82 Y131.81 E17.52808
G1 X142.994 Y131.925 E17.55581
G1 X142.305 Y131.979 E17.5788
G1 X141.758 Y132 E17.59701
G1 X103.867 Y132 E18.85727
G1 X103.12 Y131.96 E18.88215
G1 X102.382 Y131.841 E18.90701
G1 X101.66 Y131.643 E18.93191
G1 X100.964 Y131.37 E18.95678
G1 X100.301 Y131.023 E18.98167
G1 X99.678 Y130.608 E19.00656
G1 X98.917 Y129.95 E19.04002
G1 X98.8 Y129.833 E19.04553
G1 X98.3 Y129.276 E19.07042
G1 X97.863 Y128.67 E19.09527
G1 X97.492 Y128.02 E19.12017
G1 X97.193 Y127.334 E19.14505
G1 X96.969 Y126.62 E19.16994
G1 X96.822 Y125.887 E19.19481
G1 X96.75 Y124.883 E19.22829
G1 X96.75 Y85.117 E20.55091
G1 X96.79 Y84.37 E20.57579
G1 X96.909 Y83.632 E20.60065
G1 X97.107 Y82.91 E20.62555
G1 X97.38 Y82.214 E20.65042
G1 X97.727 Y81.551 E20.67531
G1 X98.142 Y80.928 E20.70021
G0 F3600 X98.539 Y81.067
G1 F1800 X99.083 Y80.45 E20.72757
G1 X99.2 Y80.333 E20.73307
G1 X99.741 Y79.849 E20.75721
G1 X100.332 Y79.426 E20.78139
G1 X100.966 Y79.072 E20.80554
G1 X101.635 Y78.789 E20.8297
G1 X102.331 Y78.581 E20.85386
G1 X103.046 Y78.451 E20.87803
G1 X103.867 Y78.4 E20.90539
G1 X141.758 Y78.4 E22.16565
G1 X142.274 Y78.42 E22.18282
G1 X142.962 Y78.474 E22.20578
G1 X143.234 Y78.501 E22.21487
G1 X144.017 Y78.642 E22.24133
G1 X144.698 Y78.807 E22.26463
G1 X145.683 Y79.129 E22.2991
G1 X146.338 Y79.402 E22.3227
G1 X147.26 Y79.874 E22.35715
G1 X147.864 Y80.246 E22.38075
G1 X148.694 Y80.852 E22.41493
G1 X149.228 Y81.309 E22.43831
G1 X149.965 Y82.047 E22.473
G1 X150.42 Y82.582 E22.49636
G1 X151.017 Y83.405 E22.53017
G1 X151.381 Y83.998 E22.55331
G1 X151.848 Y84.912 E22.58745
G1 X152.121 Y85.567 E22.61105
G1 X152.446 Y86.563 E22.6459
G1 X152.61 Y87.245 E22.66923
G1 X152.649 Y87.419 E22.67516
G1 X152.776 Y88.283 E22.70421
G1 X152.83 Y88.968 E22.72706
G1 X152.85 Y89.487 E22.74434
G1 X152.85 Y120.511 E23.7762
G1 X152.83 Y121.03 E23.79347
G1 X152.776 Y121.715 E23.81633
G1 X152.743 Y122.031 E23.82689
G1 X152.61 Y122.759 E23.85151
G1 X152.446 Y123.439 E23.87477
G1 X152.123 Y124.428 E23.90938
G1 X151.85 Y125.084 E23.93301
G1 X151.375 Y126.012 E23.96768
G1 X151.002 Y126.617 E23.99132
G1 X150.398 Y127.444 E24.02538
G1 X149.941 Y127.978 E24.04876
G1 X149.21 Y128.709 E24.08315
G1 X148.687 Y129.155 E24.10601
G1 X147.868 Y129.751 E24.1397
G1 X147.263 Y130.124 E24.16334
G1 X146.338 Y130.598 E24.19791
G1 X145.683 Y130.871 E24.22151
G1 X144.687 Y131.196 E24.25635
G1 X144.005 Y131.36 E24.27968
G1 X143.741 Y131.418 E24.28867
G1 X142.963 Y131.526 E24.3148
G1 X142.274 Y131.58 E24.33778
G1 X141.758 Y131.6 E24.35496
G1 X103.867 Y131.6 E25.61522
G1 X103.142 Y131.56 E25.63937
G1 X102.425 Y131.441 E25.66354
G1 X101.726 Y131.243 E25.68771
G1 X101.053 Y130.97 E25.71186
G1 X100.414 Y130.625 E25.73602
G1 X99.817 Y130.211 E25.76018
G1 X99.2 Y129.667 E25.78754
G1 X99.083 Y129.55 E25.79304
G1 X98.599 Y129.009 E25.81718
G1 X98.176 Y128.418 E25.84136
G1 X97.822 Y127.784 E25.86551
G1 X97.539 Y127.115 E25.88967
G1 X97.331 Y126.419 E25.91383
G1 X97.201 Y125.704 E25.938
G1 X97.15 Y124.883 E25.96536
G1 X97.15 Y85.117 E27.28798
G1 X97.19 Y84.392 E27.31213
G1 X97.309 Y83.675 E27.33631
G1 X97.507 Y82.976 E27.36047
G1 X97.78 Y82.303 E27.38463
G1 X98.125 Y81.664 E27.40878
G1 X98.539 Y81.067 E27.43294
G0 F3600 X98.935 Y81.211
G1 F1800 X99.366 Y80.733 E27.45435
G1 X99.483 Y80.616 E27.45985
G1 X100.008 Y80.147 E27.48327
G1 X100.583 Y79.741 E27.50668
G1 X101.201 Y79.403 E27.53011
G1 X101.852 Y79.136 E27.55351
G1 X102.53 Y78.946 E27.57693
G1 X103.225 Y78.833 E27.60035
G1 X103.867 Y78.8 E27.62173
G1 X141.758 Y78.8 E28.88199
G1 X142.243 Y78.819 E28.89813
G1 X142.931 Y78.873 E28.92109
G1 X143.187 Y78.898 E28.92964
G1 X143.923 Y79.03 E28.95451
G1 X144.604 Y79.195 E28.97782
G1 X145.529 Y79.498 E29.01019
G1 X146.184 Y79.771 E29.03379
G1 X147.05 Y80.215 E29.06616
G1 X147.654 Y80.587 E29.08975
G1 X148.434 Y81.155 E29.12185
G1 X148.968 Y81.612 E29.14522
G1 X149.66 Y82.306 E29.17782
G1 X150.115 Y82.841 E29.20118
G1 X150.676 Y83.615 E29.23297
G1 X151.04 Y84.208 E29.25612
G1 X151.479 Y85.066 E29.28817
G1 X151.752 Y85.721 E29.31177
G1 X152.057 Y86.656 E29.34448
G1 X152.221 Y87.338 E29.36781
G1 X152.258 Y87.503 E29.37344
G1 X152.377 Y88.315 E29.40073
G1 X152.431 Y89 E29.42359
G1 X152.45 Y89.487 E29.4398
G1 X152.45 Y120.511 E30.47166
G1 X152.431 Y120.998 E30.48787
G1 X152.377 Y121.683 E30.51072
G1 X152.346 Y121.981 E30.52069
G1 X152.221 Y122.666 E30.54385
G1 X152.057 Y123.346 E30.56711
G1 X151.754 Y124.274 E30.59958
G1 X151.481 Y124.93 E30.62322
G1 X151.035 Y125.802 E30.65579
G1 X150.662 Y126.407 E30.67943
G1 X150.095 Y127.184 E30.71142
G1 X149.638 Y127.718 E30.7348
G1 X148.95 Y128.405 E30.76714
G1 X148.427 Y128.851 E30.79
G1 X147.658 Y129.411 E30.82164
G1 X147.053 Y129.784 E30.84528
G1 X146.184 Y130.229 E30.87775
G1 X145.529 Y130.502 E30.90135
G1 X144.594 Y130.807 E30.93407
G1 X143.912 Y130.971 E30.9574
G1 X143.663 Y131.026 E30.96588
G1 X142.931 Y131.127 E30.99045
G1 X142.242 Y131.181 E31.01344
G1 X141.758 Y131.2 E31.02955
G1 X103.867 Y131.2 E32.28981
G1 X103.164 Y131.16 E32.31323
G1 X102.47 Y131.041 E32.33665
G1 X101.795 Y130.843 E32.36005
G1 X101.146 Y130.571 E32.38345
G1 X100.532 Y130.226 E32.40688
G1 X99.961 Y129.815 E32.43028
G1 X99.483 Y129.384 E32.45168
G1 X99.366 Y129.267 E32.45719
G1 X98.897 Y128.742 E32.4806
G1 X98.491 Y128.167 E32.50401
G1 X98.153 Y127.549 E32.52744
G1 X97.886 Y126.898 E32.55084
G1 X97.696 Y126.22 E32.57426
G1 X97.583 Y125.525 E32.59768
G1 X97.55 Y124.883 E32.61906
G1 X97.55 Y85.117 E33.94168
G1 X97.59 Y84.414 E33.9651
G1 X97.709 Y83.72 E33.98852
G1 X97.907 Y83.045 E34.01192
G1 X98.179 Y82.396 E34.03532
G1 X98.524 Y81.782 E34.05875
G1 X98.935 Y81.211 E34.08215
G0 F3600 X99.332 Y81.359
G1 F1800 X99.766 Y80.899 E34.10318
G1 X100.275 Y80.446 E34.12585
G1 X100.833 Y80.057 E34.14847
G1 X101.433 Y79.735 E34.17112
G1 X102.067 Y79.486 E34.19377
G1 X102.726 Y79.313 E34.21643
G1 X103.4 Y79.219 E34.23907
G1 X103.867 Y79.2 E34.25461
G1 X141.758 Y79.2 E35.51487
G1 X142.212 Y79.218 E35.52999
G1 X142.9 Y79.272 E35.55294
G1 X143.141 Y79.296 E35.56099
G1 X143.829 Y79.419 E35.58424
G1 X144.51 Y79.584 E35.60755
G1 X145.375 Y79.867 E35.63782
G1 X146.03 Y80.14 E35.66142
G1 X146.841 Y80.556 E35.69173
G1 X147.445 Y80.928 E35.71533
G1 X148.174 Y81.459 E35.74532
G1 X148.708 Y81.916 E35.7687
G1 X149.355 Y82.565 E35.79918
G1 X149.81 Y83.1 E35.82254
G1 X150.335 Y83.824 E35.85229
G1 X150.699 Y84.417 E35.87543
G1 X151.11 Y85.22 E35.90543
G1 X151.383 Y85.875 E35.92903
G1 X151.668 Y86.75 E35.95964
G1 X151.832 Y87.432 E35.98297
G1 X151.867 Y87.587 E35.98826
G1 X151.978 Y88.346 E36.01377
G1 X152.032 Y89.031 E36.03662
G1 X152.05 Y89.487 E36.0518
G1 X152.05 Y120.511 E37.08366
G1 X152.032 Y120.967 E37.09884
G1 X151.978 Y121.652 E37.1217
G1 X151.949 Y121.931 E37.13103
G1 X151.832 Y122.572 E37.1527
G1 X151.668 Y123.252 E37.17596
G1 X151.385 Y124.12 E37.20633
G1 X151.112 Y124.776 E37.22996
G1 X150.694 Y125.592 E37.26046
G1 X150.321 Y126.197 E37.28409
G1 X149.791 Y126.924 E37.31402
G1 X149.334 Y127.458 E37.3374
G1 X148.69 Y128.1 E37.36764
G1 X148.167 Y128.546 E37.3905
G1 X147.448 Y129.07 E37.42009
G1 X146.843 Y129.443 E37.44373
G1 X146.03 Y129.86 E37.47412
G1 X145.375 Y130.133 E37.49772
G1 X144.5 Y130.418 E37.52833
G1 X143.818 Y130.582 E37.55166
G1 X143.584 Y130.633 E37.55963
G1 X142.9 Y130.728 E37.58259
G1 X142.211 Y130.782 E37.60558
G1 X141.758 Y130.8 E37.62066
G1 X103.867 Y130.8 E38.88092
G1 X103.187 Y130.76 E38.90358
G1 X102.517 Y130.641 E38.92621
G1 X101.865 Y130.444 E38.94886
G1 X101.241 Y130.172 E38.9715
G1 X100.653 Y129.828 E38.99416
G1 X100.109 Y129.418 E39.01682
G1 X99.649 Y128.984 E39.03785
G1 X99.196 Y128.475 E39.06052
G1 X98.807 Y127.917 E39.08314
G1 X98.485 Y127.317 E39.10579
G1 X98.236 Y126.683 E39.12844
G1 X98.063 Y126.024 E39.1511
G1 X97.969 Y125.35 E39.17374
G1 X97.95 Y124.883 E39.18928
G1 X97.95 Y85.117 E40.51191
G1 X97.99 Y84.437 E40.53456
G1 X98.109 Y83.767 E40.55719
G1 X98.306 Y83.115 E40.57985
G1 X98.578 Y82.491 E40.60249
G1 X98.922 Y81.903 E40.62515
G1 X99.332 Y81.359 E40.6478
G0 F3600 X99.932 Y81.299
G1 F1800 X100.049 Y81.182 E40.65331
G1 X100.541 Y80.746 E40.67517
